public/images/broadcasters/rte.svg

<svg clip-rule="evenodd" fill-rule="evenodd" stroke-linejoin="round" stroke-miterlimit="2" viewBox="0 0 87 46" xmlns="http://www.w3.org/2000/svg"><g fill="#fff"><path d="m78.217 39.793c-6.672 0-12.197-4.742-13.242-11.478h12.574c1.394 0 4.359.298 4.359.298v-5.536s-2.937.217-4.576.217h-12.299c1.177-6.546 6.628-11.135 13.184-11.135 3.395 0 7.669 1.584 7.669 1.584l.112-5.827s-3.046-1.16-7.781-1.16c-11.075 0-20.697 8.477-20.697 19.218 0 11.57 9.623 19.449 20.697 19.449 5.122 0 8.249-1.384 8.249-1.384l-.115-6.065c0 .001-3.823 1.819-8.134 1.819"/><path d="m40.604 45.241s.485-2.785.485-5.258v-26.666h-1.804c-2.463 0-6.268.034-9.097.305l-.183-6.187h29.245l-.183 6.187c-2.829-.271-6.635-.305-9.097-.305h-2.27v26.667c0 2.473.489 5.258.489 5.258h-7.585"/><path d="m86.052 4.355c-2.184-.624-4.972-1.038-7.377-1.038-6.421 0-11.932 1.96-16.546 6.051l.102-4.505c4.891-3.316 10.406-4.863 16.444-4.863 2.666 0 5.016.38 7.448 1.038z"/><path d="m27.515 40.092-10.121-9.85c6.261-.577 11.471-5.149 11.471-11.173 0-6.587-3.935-12.407-15.942-12.407-7.574 0-12.804.339-12.804.339s.37 3.762.37 5.641v27.45c0 2.476-.489 5.156-.489 5.156h7.639s-.489-2.68-.489-5.644v-11.228l10.796 11.248c2.201 2.476 6.122 5.624 6.122 5.624h10.082s-4.501-3.134-6.635-5.156m-20.365-14.31v-13.734s2.646-.119 5.858-.119c6.007 0 8.49 3.012 8.49 6.621 0 4.199-3.758 7.238-8.914 7.238-2.252 0-4.216-.003-5.434-.006z"/></g></svg>

<?xml version="1.0" encoding="UTF-8" standalone="no"?>
<!DOCTYPE svg PUBLIC "-//W3C//DTD SVG 1.1//EN" "http://www.w3.org/Graphics/SVG/1.1/DTD/svg11.dtd">
<svg width="100%" height="100%" viewBox="0 0 87 46" version="1.1" xmlns="http://www.w3.org/2000/svg" xmlns:xlink="http://www.w3.org/1999/xlink" xml:space="preserve" xmlns:serif="http://www.serif.com/" style="fill-rule:evenodd;clip-rule:evenodd;stroke-linejoin:round;stroke-miterlimit:2;">
    <g>
        <path d="M78.217,39.793C71.545,39.793 66.02,35.051 64.975,28.315L77.549,28.315C78.943,28.315 81.908,28.613 81.908,28.613L81.908,23.077C81.908,23.077 78.971,23.294 77.332,23.294L65.033,23.294C66.21,16.748 71.661,12.159 78.217,12.159C81.612,12.159 85.886,13.743 85.886,13.743L85.998,7.916C85.998,7.916 82.952,6.756 78.217,6.756C67.142,6.756 57.52,15.233 57.52,25.974C57.52,37.544 67.143,45.423 78.217,45.423C83.339,45.423 86.466,44.039 86.466,44.039L86.351,37.974C86.351,37.975 82.528,39.793 78.217,39.793" style="fill:white;"/>
        <path d="M40.604,45.241C40.604,45.241 41.089,42.456 41.089,39.983L41.089,13.317L39.285,13.317C36.822,13.317 33.017,13.351 30.188,13.622L30.005,7.435L59.25,7.435L59.067,13.622C56.238,13.351 52.432,13.317 49.97,13.317L47.7,13.317L47.7,39.984C47.7,42.457 48.189,45.242 48.189,45.242L40.604,45.242" style="fill:white;"/>
        <path d="M86.052,4.355C83.868,3.731 81.08,3.317 78.675,3.317C72.254,3.317 66.743,5.277 62.129,9.368L62.231,4.863C67.122,1.547 72.637,0 78.675,0C81.341,0 83.691,0.38 86.123,1.038L86.052,4.355" style="fill:white;"/>
        <path d="M27.515,40.092L17.394,30.242C23.655,29.665 28.865,25.093 28.865,19.069C28.865,12.482 24.93,6.662 12.923,6.662C5.349,6.662 0.119,7.001 0.119,7.001C0.119,7.001 0.489,10.763 0.489,12.642L0.489,40.092C0.489,42.568 0,45.248 0,45.248L7.639,45.248C7.639,45.248 7.15,42.568 7.15,39.604L7.15,28.376L17.946,39.624C20.147,42.1 24.068,45.248 24.068,45.248L34.15,45.248C34.15,45.248 29.649,42.114 27.515,40.092M7.15,25.782L7.15,12.048C7.15,12.048 9.796,11.929 13.008,11.929C19.015,11.929 21.498,14.941 21.498,18.55C21.498,22.749 17.74,25.788 12.584,25.788C10.332,25.788 8.368,25.785 7.15,25.782Z" style="fill:white;"/>
    </g>
</svg>
